img/Primary Small.svg

<svg width="227" height="56" viewBox="0 0 227 56" fill="none" xmlns="http://www.w3.org/2000/svg">
<rect x="1" y="1" width="62" height="54" rx="7" fill="#53DB78"/>
<rect x="1" y="1" width="62" height="54" rx="7" stroke="#1D4D2A" stroke-width="2"/>
<path fill-rule="evenodd" clip-rule="evenodd" d="M44.9714 9.47693C45.51 9.47693 45.9466 9.93266 45.9467 10.4947V20.0635L45.9501 20.0639H45.9528C50.1643 20.1725 53.554 23.6795 53.5541 28C53.554 32.3227 50.1611 35.8303 45.9467 35.9357V42.2485C45.9466 44.6092 44.1127 46.5231 41.8505 46.5231H35.588L35.5701 46.3402C35.1953 42.5022 32.1311 39.4944 28.3757 39.4012L28.1963 39.3988C24.3594 39.3989 21.2031 42.4413 20.8225 46.3402L20.8046 46.5231H11.4211C10.8825 46.523 10.4459 46.0673 10.4458 45.5053V10.4947C10.4459 9.93268 10.8825 9.47697 11.4211 9.47693H44.9714ZM22.5395 20.2651C21.4622 20.2651 20.5889 21.1764 20.5889 22.3006V34.1065C20.5889 35.2307 21.4622 36.142 22.5395 36.142H33.853C34.9303 36.142 35.8036 35.2307 35.8036 34.1065V22.3006C35.8036 21.1764 34.9303 20.2651 33.853 20.2651H22.5395Z" fill="#353535"/>
<path d="M75.192 43V19.96H80.088V43H75.192ZM84.7557 43V19.96H89.8757L102.772 35.32V19.96H107.796V43H102.676L89.7157 27.576V43H84.7557ZM121.173 43V24.952H112.149V19.96H135.189V24.952H126.165V43H121.173ZM139.566 43V24.696C139.566 23.8213 139.779 23.032 140.206 22.328C140.633 21.6027 141.209 21.0267 141.934 20.6C142.659 20.1733 143.449 19.96 144.302 19.96H157.838C158.713 19.96 159.502 20.1733 160.206 20.6C160.931 21.0267 161.507 21.6027 161.934 22.328C162.382 23.032 162.606 23.8213 162.606 24.696V43H157.582V35.576H144.526V43H139.566ZM144.526 30.584H157.582V24.952H144.526V30.584ZM180.844 43L167.5 19.96H173.26L182.924 36.696L192.588 19.96H198.316L184.972 43H180.844ZM201.906 43V24.696C201.906 23.8213 202.119 23.032 202.546 22.328C202.973 21.6027 203.549 21.0267 204.274 20.6C204.999 20.1733 205.789 19.96 206.642 19.96H220.178C221.053 19.96 221.842 20.1733 222.546 20.6C223.271 21.0267 223.847 21.6027 224.274 22.328C224.722 23.032 224.946 23.8213 224.946 24.696V43H219.922V35.576H206.866V43H201.906ZM206.866 30.584H219.922V24.952H206.866V30.584Z" fill="white"/>
</svg>

<svg xmlns="http://www.w3.org/2000/svg" width="227" height="56" fill="none"><rect width="62" height="54" x="1" y="1" fill="#53DB78" rx="7"/><rect width="62" height="54" x="1" y="1" stroke="#1D4D2A" stroke-width="2" rx="7"/><path fill="#353535" fill-rule="evenodd" d="M44.971 9.477c.539 0 .976.456.976 1.018v9.569h.006c4.211.108 7.601 3.616 7.601 7.936 0 4.323-3.393 7.83-7.607 7.936v6.313c0 2.36-1.834 4.274-4.097 4.274h-6.262l-.018-.183c-.375-3.838-3.439-6.846-7.194-6.939l-.18-.002c-3.837 0-6.993 3.042-7.373 6.941l-.018.183H11.42c-.538 0-.975-.456-.975-1.018v-35.01c0-.562.437-1.018.975-1.018zM22.54 20.265c-1.078 0-1.951.911-1.951 2.036v11.805c0 1.125.873 2.036 1.95 2.036h11.314c1.077 0 1.95-.911 1.95-2.036V22.301c0-1.125-.873-2.036-1.95-2.036z" clip-rule="evenodd"/><path fill="#fff" d="M75.192 43V19.96h4.896V43zm9.564 0V19.96h5.12l12.896 15.36V19.96h5.024V43h-5.12l-12.96-15.424V43zm36.417 0V24.952h-9.024V19.96h23.04v4.992h-9.024V43zm18.393 0V24.696q0-1.312.64-2.368a4.8 4.8 0 0 1 1.728-1.728 4.6 4.6 0 0 1 2.368-.64h13.536q1.312 0 2.368.64a4.8 4.8 0 0 1 1.728 1.728q.672 1.056.672 2.368V43h-5.024v-7.424h-13.056V43zm4.96-12.416h13.056v-5.632h-13.056zM180.844 43 167.5 19.96h5.76l9.664 16.736 9.664-16.736h5.728L184.972 43zm21.062 0V24.696q0-1.312.64-2.368a4.8 4.8 0 0 1 1.728-1.728 4.6 4.6 0 0 1 2.368-.64h13.536q1.312 0 2.368.64a4.8 4.8 0 0 1 1.728 1.728q.672 1.056.672 2.368V43h-5.024v-7.424h-13.056V43zm4.96-12.416h13.056v-5.632h-13.056z"/></svg>
